;FLAVOR:Marlin
;TIME:6427
;Filament used: 4.45925m
;Layer height: 0.2
;MINX:80
;MINY:80
;MINZ:0.2
;MAXX:140
;MAXY:140
;MAXZ:22.4
;POSTPROCESSED
;Generated with Cura_SteamEngine 4.8.0
M140 S60
M105
M190 S60
M104 S210
M105
M109 S210
M82 ;absolute extrusion mode
; Ender 3 Custom Start G-code
G92 E0 ; Reset Extruder
G28 ; Home all axes
G1 Z2.0 F3000 ; Move Z Axis up little to prevent scratching of Heat Bed
G1 X0.1 Y20 Z0.3 F5000.0 ; Move to start position
G1 X0.1 Y200.0 Z0.3 F1500.0 E15 ; Draw the first line
G1 X0.4 Y200.0 Z0.3 F5000.0 ; Move to side a little
G1 X0.4 Y20 Z0.3 F1500.0 E30 ; Draw the second line
G92 E0 ; Reset Extruder
G1 Z2.0 F3000 ; Move Z Axis up little to prevent scratching of Heat Bed
G1 X5 Y20 Z0.3 F5000.0 ; Move over to prevent blob squish
G92 E0
G92 E0
G1 F1500 E-6.5
;LAYER_COUNT:112
;LAYER:0
M117 ETR 1h47 Lyr1of112
M107
G0 F6000 X83.198 Y83.264 Z0.2
;TYPE:SKIRT
G1 F1500 E0
G1 F1200 X83.886 Y82.627 E0.03119
G1 X84.626 Y82.051 E0.06237
G1 X85.412 Y81.539 E0.09357
G1 X86.239 Y81.097 E0.12476
G1 X87.101 Y80.727 E0.15596
G1 X87.991 Y80.431 E0.18716
G1 X88.903 Y80.213 E0.21835
G1 X89.83 Y80.072 E0.24953
G1 X90.701 Y80.013 E0.27857
G1 X91.022 Y80.004 E0.28925
G1 X91.33 Y80 E0.29949
G1 X128.293 Y80 E1.52889
G1 X129.149 Y80.011 E1.55736
G1 X130.085 Y80.065 E1.58855
G1 X131.013 Y80.197 E1.61972
G1 X131.927 Y80.409 E1.65093
G1 X132.819 Y80.698 E1.68211
G1 X133.684 Y81.061 E1.71331
G1 X134.514 Y81.497 E1.7445
G1 X135.305 Y82.002 E1.77571
G1 X136.049 Y82.573 E1.8069
G1 X136.742 Y83.205 E1.8381
G1 X137.379 Y83.893 E1.86928
G1 X137.954 Y84.634 E1.90048
G1 X138.465 Y85.42 E1.93166
G1 X138.907 Y86.248 E1.96288
G1 X139.276 Y87.11 E1.99407
G1 X139.571 Y88 E2.02525
G1 X139.789 Y88.912 E2.05644
G1 X139.929 Y89.84 E2.08765
G1 X139.987 Y90.701 E2.11636
G1 X139.996 Y91.021 E2.127
G1 X140 Y91.33 E2.13728
G1 X139.999 Y128.4 E3.37023
G1 X139.99 Y129.127 E3.39442
G1 X139.939 Y130.064 E3.42563
G1 X139.807 Y130.992 E3.4568
G1 X139.598 Y131.906 E3.48799
G1 X139.311 Y132.799 E3.51919
G1 X138.949 Y133.665 E3.5504
G1 X138.515 Y134.496 E3.58159
G1 X138.011 Y135.287 E3.61278
G1 X137.442 Y136.032 E3.64396
G1 X136.811 Y136.727 E3.67518
G1 X136.124 Y137.365 E3.70637
G1 X135.385 Y137.942 E3.73755
G1 X134.599 Y138.454 E3.76875
G1 X133.773 Y138.897 E3.79992
G1 X132.911 Y139.269 E3.83115
G1 X132.022 Y139.565 E3.86231
G1 X131.11 Y139.785 E3.89352
G1 X130.183 Y139.926 E3.9247
G1 X129.299 Y139.987 E3.95418
G1 X128.978 Y139.996 E3.96486
G1 X128.67 Y140 E3.9751
G1 X91.565 Y139.999 E5.20922
G1 X90.867 Y139.99 E5.23244
G1 X89.931 Y139.938 E5.26362
G1 X89.002 Y139.806 E5.29482
G1 X88.088 Y139.596 E5.32602
G1 X87.195 Y139.309 E5.35721
G1 X86.33 Y138.946 E5.38841
G1 X85.499 Y138.512 E5.4196
G1 X84.708 Y138.008 E5.45079
G1 X83.963 Y137.438 E5.48199
G1 X83.269 Y136.807 E5.51319
G1 X82.632 Y136.12 E5.54435
G1 X82.055 Y135.38 E5.57556
G1 X81.543 Y134.594 E5.60676
G1 X81.1 Y133.767 E5.63796
G1 X80.729 Y132.906 E5.66914
G1 X80.433 Y132.016 E5.70034
G1 X80.214 Y131.104 E5.73154
G1 X80.073 Y130.177 E5.76272
G1 X80.013 Y129.288 E5.79236
G1 X80.004 Y128.955 E5.80344
G1 X80 Y128.658 E5.81332
G1 X80.001 Y91.525 E7.04837
G1 X80.01 Y90.86 E7.07049
G1 X80.063 Y89.924 E7.10167
G1 X80.195 Y88.995 E7.13288
G1 X80.406 Y88.081 E7.16408
G1 X80.694 Y87.189 E7.19525
G1 X81.057 Y86.324 E7.22645
G1 X81.492 Y85.493 E7.25765
G1 X81.996 Y84.703 E7.28882
G1 X82.566 Y83.958 E7.32002
G1 X83.198 Y83.264 E7.35124
G0 F6000 X83.589 Y83.439
G1 F1200 X84.274 Y82.823 E7.38188
G1 X85.01 Y82.27 E7.4125
G1 X85.791 Y81.782 E7.44313
G1 X86.611 Y81.364 E7.47374
G1 X87.465 Y81.019 E7.50437
G1 X88.345 Y80.749 E7.53499
G1 X89.245 Y80.557 E7.5656
G1 X90.159 Y80.443 E7.59623
G1 X90.712 Y80.413 E7.61465
G1 X91.033 Y80.404 E7.62533
G1 X91.33 Y80.4 E7.63521
G1 X128.293 Y80.4 E8.86461
G1 X129.143 Y80.411 E8.89288
G1 X130.062 Y80.464 E8.9235
G1 X130.973 Y80.597 E8.95412
G1 X131.869 Y80.808 E8.98473
G1 X132.743 Y81.096 E9.01534
G1 X133.59 Y81.459 E9.04599
G1 X134.401 Y81.894 E9.0766
G1 X135.171 Y82.398 E9.10721
G1 X135.895 Y82.967 E9.13783
G1 X136.567 Y83.597 E9.16847
G1 X137.182 Y84.282 E9.19909
G1 X137.735 Y85.018 E9.22971
G1 X138.222 Y85.799 E9.26032
G1 X138.639 Y86.62 E9.29095
G1 X138.984 Y87.474 E9.32158
G1 X139.253 Y88.354 E9.35219
G1 X139.445 Y89.255 E9.38283
G1 X139.558 Y90.168 E9.41343
G1 X139.587 Y90.712 E9.43155
G1 X139.596 Y91.032 E9.44219
G1 X139.6 Y91.33 E9.45211
G1 X139.599 Y128.395 E10.68489
G1 X139.59 Y129.122 E10.70907
G1 X139.539 Y130.041 E10.73969
G1 X139.408 Y130.953 E10.77033
G1 X139.198 Y131.849 E10.80094
G1 X138.912 Y132.724 E10.83156
G1 X138.551 Y133.571 E10.86218
G1 X138.117 Y134.383 E10.89281
G1 X137.615 Y135.155 E10.92343
G1 X137.047 Y135.88 E10.95407
G1 X136.419 Y136.553 E10.98468
G1 X135.735 Y137.169 E11.0153
G1 X135 Y137.723 E11.04591
G1 X134.22 Y138.212 E11.07653
G1 X133.4 Y138.631 E11.10716
G1 X132.547 Y138.977 E11.13777
G1 X131.667 Y139.248 E11.1684
G1 X130.767 Y139.441 E11.19901
G1 X129.853 Y139.556 E11.22965
G1 X129.288 Y139.587 E11.24847
G1 X128.967 Y139.596 E11.25915
G1 X128.67 Y139.6 E11.26903
G1 X91.57 Y139.599 E12.50298
G1 X90.872 Y139.59 E12.5262
G1 X89.953 Y139.538 E12.55682
G1 X89.042 Y139.407 E12.58743
G1 X88.146 Y139.197 E12.61804
G1 X87.271 Y138.91 E12.64866
G1 X86.424 Y138.548 E12.6793
G1 X85.612 Y138.114 E12.70992
G1 X84.841 Y137.612 E12.74052
G1 X84.116 Y137.044 E12.77116
G1 X83.443 Y136.415 E12.8018
G1 X82.828 Y135.731 E12.83239
G1 X82.274 Y134.996 E12.863
G1 X81.786 Y134.215 E12.89363
G1 X81.367 Y133.395 E12.92426
G1 X81.021 Y132.542 E12.95488
G1 X80.751 Y131.662 E12.98549
G1 X80.558 Y130.761 E13.01614
G1 X80.444 Y129.848 E13.04674
G1 X80.413 Y129.277 E13.06576
G1 X80.404 Y128.944 E13.07684
G1 X80.4 Y128.658 E13.08635
G1 X80.401 Y91.531 E14.3212
G1 X80.41 Y90.866 E14.34332
G1 X80.462 Y89.946 E14.37397
G1 X80.594 Y89.035 E14.40459
G1 X80.805 Y88.139 E14.4352
G1 X81.092 Y87.264 E14.46583
G1 X81.455 Y86.418 E14.49645
G1 X81.889 Y85.606 E14.52707
G1 X82.392 Y84.835 E14.55769
G1 X82.961 Y84.111 E14.58832
G1 X83.589 Y83.439 E14.61891
G0 F6000 X83.981 Y83.617
G1 F1200 X84.662 Y83.024 E14.64894
G1 X85.394 Y82.494 E14.679
G1 X86.169 Y82.031 E14.70903
G1 X86.982 Y81.638 E14.73906
G1 X87.827 Y81.318 E14.76911
G1 X88.696 Y81.075 E14.79913
G1 X89.584 Y80.909 E14.82917
G1 X90.723 Y80.813 E14.86719
G1 X91.044 Y80.804 E14.87787
G1 X91.33 Y80.8 E14.88738
G1 X128.293 Y80.8 E16.11678
G1 X129.137 Y80.811 E16.14485
G1 X130.039 Y80.864 E16.17491
G1 X130.932 Y80.996 E16.20493
G1 X131.81 Y81.207 E16.23496
G1 X132.666 Y81.495 E16.265
G1 X133.493 Y81.857 E16.29503
G1 X134.285 Y82.292 E16.32508
G1 X135.036 Y82.794 E16.35513
G1 X135.739 Y83.361 E16.38517
G1 X136.389 Y83.988 E16.4152
G1 X136.981 Y84.67 E16.44524
G1 X137.511 Y85.401 E16.47527
G1 X137.973 Y86.177 E16.50531
G1 X138.366 Y86.99 E16.53534
G1 X138.684 Y87.835 E16.56537
G1 X138.927 Y88.705 E16.59542
G1 X139.092 Y89.593 E16.62546
G1 X139.187 Y90.723 E16.66317
G1 X139.196 Y91.043 E16.67382
G1 X139.2 Y91.33 E16.68337
G1 X139.199 Y128.39 E17.91599
G1 X139.19 Y129.117 E17.94017
G1 X139.139 Y130.019 E17.97022
G1 X139.008 Y130.913 E18.00027
G1 X138.799 Y131.791 E18.03029
G1 X138.513 Y132.648 E18.06034
G1 X138.152 Y133.476 E18.09038
G1 X137.72 Y134.268 E18.12039
G1 X137.219 Y135.02 E18.15044
G1 X136.653 Y135.724 E18.18049
G1 X136.028 Y136.375 E18.2105
G1 X135.347 Y136.969 E18.24056
G1 X134.616 Y137.5 E18.27061
G1 X133.842 Y137.964 E18.30062
G1 X133.029 Y138.358 E18.33067
G1 X132.185 Y138.678 E18.36069
G1 X131.315 Y138.923 E18.39076
G1 X130.428 Y139.089 E18.42077
G1 X129.277 Y139.187 E18.45919
G1 X128.956 Y139.196 E18.46987
G1 X128.67 Y139.2 E18.47938
G1 X91.575 Y139.199 E19.71317
G1 X90.877 Y139.19 E19.73639
G1 X89.976 Y139.139 E19.7664
G1 X89.082 Y139.007 E19.79646
G1 X88.204 Y138.798 E19.82648
G1 X87.347 Y138.511 E19.85654
G1 X86.52 Y138.15 E19.88655
G1 X85.727 Y137.717 E19.9166
G1 X84.976 Y137.216 E19.94663
G1 X84.272 Y136.65 E19.97667
G1 X83.621 Y136.024 E20.00671
G1 X83.028 Y135.343 E20.03674
G1 X82.498 Y134.612 E20.06678
G1 X82.034 Y133.837 E20.09682
G1 X81.64 Y133.024 E20.12687
G1 X81.32 Y132.18 E20.15689
G1 X81.076 Y131.31 E20.18694
G1 X80.91 Y130.422 E20.21699
G1 X80.813 Y129.267 E20.25554
G1 X80.804 Y128.934 E20.26662
G1 X80.8 Y128.658 E20.2758
G1 X80.801 Y91.536 E21.51048
G1 X80.81 Y90.871 E21.5326
G1 X80.862 Y89.969 E21.56265
G1 X80.994 Y89.076 E21.59268
G1 X81.204 Y88.198 E21.6227
G1 X81.491 Y87.341 E21.65276
G1 X81.853 Y86.514 E21.68279
G1 X82.286 Y85.722 E21.71281
G1 X82.788 Y84.971 E21.74285
G1 X83.355 Y84.267 E21.77292
G1 X83.981 Y83.617 E21.80293
G1 F1500 E15.30293
;MESH:A8-Adapter2.stl
G0 F6000 X96.66 Y109.088
G0 X95.331 Y107.258
G0 X95.1 Y110.18
G0 X95.258 Y110.847
G0 X95.525 Y111.3
G0 X97.322 Y113.204
;TYPE:WALL-INNER
G1 F1500 E21.80293
G1 F1200 X97.792 Y113.171 E21.81861
G1 X98.252 Y113.068 E21.83428
G1 X98.686 Y112.905 E21.8497
G1 X99.092 Y112.677 E21.86519
G1 X99.462 Y112.395 E21.88066
G1 X99.789 Y112.058 E21.89628
G1 X100.059 Y111.683 E21.91165
G1 X100.276 Y111.267 E21.92726
G1 X100.428 Y110.835 E21.94249
G1 X100.509 Y110.402 E21.95714
G1 X100.535 Y110.115 E21.96672
G1 X100.518 Y109.649 E21.98223
G1 X100.438 Y109.205 E21.99724
G1 X100.289 Y108.759 E22.01288
G1 X100.073 Y108.34 E22.02856
G1 X99.791 Y107.946 E22.04467
G1 X99.462 Y107.603 E22.06048
G1 X99.049 Y107.295 E22.07762
G1 X98.626 Y107.068 E22.09358
G1 X98.174 Y106.909 E22.10952
G1 X97.71 Y106.82 E22.12523
G1 X97.235 Y106.796 E22.14105
G1 X96.747 Y106.851 E22.15739
G1 X96.295 Y106.97 E22.17293
G1 X95.844 Y107.163 E22.18925
G1 X95.444 Y107.412 E22.20492
G1 X95.091 Y107.713 E22.22035
G1 X94.783 Y108.061 E22.23581
G1 X94.529 Y108.454 E22.25137
G1 X94.33 Y108.883 E22.2671
G1 X94.203 Y109.321 E22.28227
G1 X94.138 Y109.79 E22.29801
G1 X94.139 Y110.257 E22.31355
G1 X94.216 Y110.739 E22.32978
G1 X94.365 Y111.21 E22.34621
G1 X94.575 Y111.629 E22.3618
G1 X94.84 Y112.012 E22.37729
G1 X95.159 Y112.352 E22.3928
G1 X95.518 Y112.639 E22.40809
G1 X95.922 Y112.877 E22.42368
G1 X96.347 Y113.048 E22.43892
G1 X96.808 Y113.16 E22.4547
G1 X97.322 Y113.204 E22.47185
G0 F6000 X97.325 Y112.803
G1 F1200 X97.734 Y112.774 E22.48549
G1 X98.137 Y112.684 E22.49923
G1 X98.517 Y112.541 E22.51273
G1 X98.872 Y112.342 E22.52627
G1 X99.196 Y112.095 E22.53982
G1 X99.481 Y111.801 E22.55344
G1 X99.718 Y111.472 E22.56692
G1 X99.908 Y111.108 E22.58058
G1 X100.04 Y110.731 E22.59386
G1 X100.112 Y110.347 E22.60686
G1 X100.134 Y110.104 E22.61497
G1 X100.119 Y109.692 E22.62869
G1 X100.049 Y109.304 E22.6418
G1 X99.919 Y108.915 E22.65544
G1 X99.731 Y108.549 E22.66913
G1 X99.483 Y108.202 E22.68331
G1 X99.196 Y107.904 E22.69707
G1 X98.834 Y107.633 E22.71211
G1 X98.464 Y107.435 E22.72607
G1 X98.069 Y107.296 E22.74
G1 X97.662 Y107.218 E22.75378
G1 X97.247 Y107.197 E22.7676
G1 X96.821 Y107.245 E22.78186
G1 X96.426 Y107.349 E22.79545
G1 X96.03 Y107.519 E22.80978
G1 X95.681 Y107.736 E22.82345
G1 X95.372 Y107.999 E22.83694
G1 X95.102 Y108.304 E22.85049
G1 X94.88 Y108.647 E22.86408
G1 X94.706 Y109.024 E22.87789
G1 X94.595 Y109.405 E22.89109
G1 X94.538 Y109.817 E22.90492
G1 X94.539 Y110.225 E22.91849
G1 X94.606 Y110.647 E22.93271
G1 X94.737 Y111.059 E22.94709
G1 X94.92 Y111.425 E22.9607
G1 X95.152 Y111.76 E22.97425
G1 X95.431 Y112.057 E22.9878
G1 X95.746 Y112.309 E23.00122
G1 X96.099 Y112.517 E23.01485
G1 X96.469 Y112.666 E23.02811
G1 X96.873 Y112.764 E23.04194
G1 X97.325 Y112.803 E23.05703
G0 F6000 X97.328 Y112.402
G1 F1200 X97.676 Y112.377 E23.06863
G1 X98.022 Y112.3 E23.08042
G1 X98.348 Y112.177 E23.09201
G1 X98.652 Y112.007 E23.1036
G1 X98.93 Y111.795 E23.11522
G1 X99.173 Y111.544 E23.12684
G1 X99.377 Y111.261 E23.13845
G1 X99.54 Y110.949 E23.15016
G1 X99.652 Y110.628 E23.16146
G1 X99.715 Y110.292 E23.17283
G1 X99.733 Y110.093 E23.17948
G1 X99.72 Y109.735 E23.19139
G1 X99.66 Y109.403 E23.20262
G1 X99.549 Y109.07 E23.21429
G1 X99.389 Y108.758 E23.22595
G1 X99.175 Y108.459 E23.23818
G1 X98.93 Y108.205 E23.24992
G1 X98.618 Y107.971 E23.26289
G1 X98.302 Y107.802 E23.27481
G1 X97.964 Y107.683 E23.28673
G1 X97.614 Y107.616 E23.29858
G1 X97.259 Y107.598 E23.3104
G1 X96.895 Y107.639 E23.32259
G1 X96.556 Y107.728 E23.33424
G1 X96.216 Y107.874 E23.34655
G1 X95.918 Y108.06 E23.35823
G1 X95.653 Y108.285 E23.3698
G1 X95.421 Y108.547 E23.38144
G1 X95.231 Y108.84 E23.39305
G1 X95.082 Y109.164 E23.40491
G1 X94.987 Y109.489 E23.41617
G1 X94.938 Y109.844 E23.42809
G1 X94.939 Y110.193 E23.4397
G1 X94.996 Y110.554 E23.45186
G1 X95.109 Y110.908 E23.46422
G1 X95.265 Y111.221 E23.47585
G1 X95.464 Y111.508 E23.48746
G1 X95.703 Y111.762 E23.49906
G1 X95.974 Y111.979 E23.51061
G1 X96.276 Y112.157 E23.52227
G1 X96.591 Y112.284 E23.53357
G1 X96.938 Y112.368 E23.54544
G1 X97.328 Y112.402 E23.55846
G0 F6000 X97.331 Y112.001
;TYPE:WALL-OUTER
G1 F1200 X97.618 Y111.98 E23.56803
G1 X97.907 Y111.916 E23.57788
G1 X98.179 Y111.813 E23.58755
G1 X98.432 Y111.672 E23.59719
G1 X98.663 Y111.495 E23.60686
G1 X98.866 Y111.286 E23.61655
G1 X99.036 Y111.05 E23.62623
G1 X99.172 Y110.79 E23.63599
G1 X99.264 Y110.525 E23.64532
G1 X99.318 Y110.237 E23.65506
G1 X99.332 Y110.082 E23.66024
G1 X99.321 Y109.778 E23.67036
G1 X99.271 Y109.502 E23.67969
G1 X99.179 Y109.226 E23.68936
G1 X99.046 Y108.967 E23.69905
G1 X98.867 Y108.716 E23.7093
G1 X98.664 Y108.506 E23.71902
G1 X98.402 Y108.309 E23.72992
G1 X98.14 Y108.169 E23.7398
G1 X97.859 Y108.07 E23.74971
G1 X97.566 Y108.014 E23.75963
G1 X97.271 Y107.999 E23.76945
G1 X96.968 Y108.033 E23.77959
G1 X96.686 Y108.107 E23.78929
G1 X96.402 Y108.229 E23.79957
G1 X96.155 Y108.384 E23.80927
G1 X95.933 Y108.572 E23.81895
G1 X95.74 Y108.79 E23.82863
G1 X95.582 Y109.033 E23.83827
G1 X95.458 Y109.304 E23.84818
G1 X95.379 Y109.573 E23.85751
G1 X95.338 Y109.871 E23.86751
G1 X95.339 Y110.161 E23.87716
G1 X95.386 Y110.461 E23.88726
G1 X95.481 Y110.757 E23.8976
G1 X95.61 Y111.017 E23.90725
G1 X95.776 Y111.256 E23.91693
G1 X95.975 Y111.468 E23.9266
G1 X96.201 Y111.649 E23.93623
G1 X96.453 Y111.797 E23.94595
G1 X96.713 Y111.902 E23.95528
G1 X97.003 Y111.972 E23.9652
G1 X97.331 Y112.001 E23.97615
G0 F6000 X97.328 Y112.441
G1 F1500 E17.47615
G0 F6000 X98.563 Y111.873
G0 X99.05 Y111.44
G0 X99.243 Y111.126
G0 X100.465 Y108.684
G0 X98.38 Y109.562
G0 X109.826 Y98.453
G0 X109.47 Y100.686
G0 X109.994 Y100.537
;TYPE:WALL-INNER
G1 F1500 E23.97615
G1 F1200 X110.457 Y100.504 E23.99159
G1 X110.915 Y100.403 E24.00719
G1 X111.356 Y100.236 E24.02287
G1 X111.762 Y100.009 E24.03834
G1 X112.127 Y99.728 E24.05367
G1 X112.453 Y99.395 E24.06916
G1 X112.729 Y99.014 E24.08481
G1 X112.945 Y98.593 E24.10055
G1 X113.099 Y98.146 E24.11628
G1 X113.176 Y97.73 E24.13035
G1 X113.201 Y97.448 E24.13976
G1 X113.185 Y96.976 E24.15547
G1 X113.085 Y96.473 E24.17253
G1 X112.908 Y95.988 E24.1897
G1 X112.677 Y95.574 E24.20547
G1 X112.393 Y95.203 E24.22101
G1 X112.059 Y94.878 E24.23651
G1 X111.682 Y94.608 E24.25193
G1 X111.264 Y94.388 E24.26764
G1 X110.812 Y94.234 E24.28352
G1 X110.375 Y94.153 E24.29831
G1 X109.92 Y94.129 E24.31346
G1 X109.42 Y94.181 E24.33018
G1 X108.959 Y94.303 E24.34604
G1 X108.51 Y94.498 E24.36232
G1 X108.11 Y94.745 E24.37796
G1 X107.757 Y95.047 E24.39341
G1 X107.45 Y95.394 E24.40882
G1 X107.195 Y95.784 E24.42432
G1 X107.006 Y96.197 E24.43942
G1 X106.999 Y96.223 E24.44032
G1 X106.871 Y96.649 E24.45511
G1 X106.805 Y97.123 E24.47103
G1 X106.806 Y97.591 E24.4866
G1 X106.883 Y98.072 E24.5028
G1 X107.026 Y98.52 E24.51844
G1 X107.239 Y98.958 E24.53464
G1 X107.507 Y99.345 E24.5503
G1 X107.824 Y99.683 E24.56571
G1 X108.188 Y99.975 E24.58123
G1 X108.591 Y100.21 E24.59675
G1 X109.014 Y100.381 E24.61192
G1 X109.043 Y100.387 E24.61291
G1 X109.5 Y100.497 E24.62854
G1 X109.994 Y100.537 E24.64502
G0 F6000 X109.996 Y100.136
G1 F1200 X110.4 Y100.107 E24.6585
G1 X110.801 Y100.019 E24.67215
G1 X111.186 Y99.873 E24.68585
G1 X111.541 Y99.674 E24.69938
G1 X111.861 Y99.428 E24.71281
G1 X112.146 Y99.136 E24.72638
G1 X112.387 Y98.804 E24.74002
G1 X112.576 Y98.436 E24.75378
G1 X112.711 Y98.044 E24.76757
G1 X112.779 Y97.676 E24.78002
G1 X112.8 Y97.437 E24.788
G1 X112.786 Y97.022 E24.80181
G1 X112.699 Y96.581 E24.81676
G1 X112.543 Y96.155 E24.83185
